.icons/Gruvbox-Plus-Dark/apps/16/skydrive.svg

<svg width="16" height="16" version="1.1" xmlns="http://www.w3.org/2000/svg">
  <defs>
    <style type="text/css" id="current-color-scheme">.ColorScheme-Text { color:#ebdbb2; } .ColorScheme-Highlight { color:#458588; }</style>
  </defs>
  <path class="ColorScheme-Text" fill="currentColor" d="m5.187 12.68c-0.968-0.242-1.507-1.012-1.509-2.154-1e-3 -0.365 0.026-0.54 0.117-0.775 0.223-0.575 0.815-1.009 1.593-1.169 0.387-0.08 0.507-0.165 0.507-0.363 0-0.062 0.046-0.247 0.102-0.41 0.256-0.744 0.73-1.364 1.236-1.618 0.53-0.265 0.797-0.325 1.438-0.322 0.911 5e-3 1.365 0.202 2 0.87l0.35 0.366 0.313-0.108c1.514-0.524 3.025 0.368 3.146 1.86l0.034 0.408 0.298 0.107c0.852 0.305 1.252 0.946 1.18 1.888-0.048 0.616-0.336 1.108-0.792 1.352l-0.215 0.115-4.768 9e-3c-3.664 7e-3 -4.829-6e-3 -5.03-0.056zm-3.574-0.659c-0.565-0.134-1.164-0.633-1.445-1.204-0.16-0.324-0.168-0.372-0.168-0.945 0-0.545 0.014-0.632 0.14-0.903 0.268-0.57 0.78-0.982 1.423-1.144 0.135-0.034 0.263-0.089 0.283-0.121 0.02-0.033 0.043-0.21 0.05-0.394 0.045-1.141 0.793-2.146 1.839-2.469 0.565-0.175 1.275-0.132 1.889 0.114 0.195 0.078 0.173 0.095 0.585-0.446 0.244-0.319 0.736-0.717 1.139-0.919 0.435-0.219 0.887-0.319 1.428-0.318 1.512 4e-3 2.815 0.95 3.297 2.393 0.154 0.461 0.146 0.59-0.035 0.594-0.079 2e-3 -0.306 0.045-0.505 0.097l-0.36 0.094-0.329-0.329c-0.928-0.927-2.441-1.128-3.728-0.494-0.514 0.254-0.927 0.617-1.239 1.091-0.223 0.338-0.506 0.969-0.506 1.126 0 0.111-0.09 0.166-0.474 0.292-1.189 0.39-1.883 1.29-1.883 2.443 0 0.419 0.108 0.932 0.258 1.226 0.057 0.111 0.088 0.216 0.07 0.234-0.046 0.046-1.525 0.031-1.729-0.018z"/>
</svg>

<svg xmlns="http://www.w3.org/2000/svg" style="isolation:isolate" width="16" height="16" viewBox="0 0 16 16">
 <defs>
  <style id="current-color-scheme" type="text/css">
   .ColorScheme-Text { color:#ebdbb2; } .ColorScheme-Highlight { color:#458588; }
  </style>
  <linearGradient id="arrongin" x1="0%" x2="0%" y1="0%" y2="100%">
   <stop offset="0%" style="stop-color:#d79921; stop-opacity:1"/>
   <stop offset="100%" style="stop-color:#b57614; stop-opacity:1"/>
  </linearGradient>
  <linearGradient id="aurora" x1="0%" x2="0%" y1="0%" y2="100%">
   <stop offset="0%" style="stop-color:#83a598; stop-opacity:1"/>
   <stop offset="100%" style="stop-color:#b16286; stop-opacity:1"/>
  </linearGradient>
  <linearGradient id="fitdance" x1="0%" x2="0%" y1="0%" y2="100%">
   <stop offset="0%" style="stop-color:#8ec07c; stop-opacity:1"/>
   <stop offset="100%" style="stop-color:#458588; stop-opacity:1"/>
  </linearGradient>
  <linearGradient id="oomox" x1="0%" x2="0%" y1="0%" y2="100%">
   <stop offset="0%" style="stop-color:#458588; stop-opacity:1"/>
   <stop offset="100%" style="stop-color:#928374; stop-opacity:1"/>
  </linearGradient>
  <linearGradient id="rainblue" x1="0%" x2="0%" y1="0%" y2="100%">
   <stop offset="0%" style="stop-color:#b8bb26; stop-opacity:1"/>
   <stop offset="100%" style="stop-color:#076678; stop-opacity:1"/>
  </linearGradient>
  <linearGradient id="sunrise" x1="0%" x2="0%" y1="0%" y2="100%">
   <stop offset="0%" style="stop-color: #fe8019; stop-opacity:1"/>
   <stop offset="100%" style="stop-color: #fabd2f; stop-opacity:1"/>
  </linearGradient>
  <linearGradient id="telinkrin" x1="0%" x2="0%" y1="0%" y2="100%">
   <stop offset="0%" style="stop-color: #83a598; stop-opacity:1"/>
   <stop offset="100%" style="stop-color: #83a598; stop-opacity:1"/>
  </linearGradient>
  <linearGradient id="60spsycho" x1="0%" x2="0%" y1="0%" y2="100%">
   <stop offset="0%" style="stop-color: #fb4934; stop-opacity:1"/>
   <stop offset="25%" style="stop-color: #fabd2f; stop-opacity:1"/>
   <stop offset="50%" style="stop-color: #fe8019; stop-opacity:1"/>
   <stop offset="100%" style="stop-color: #689d6a; stop-opacity:1"/>
  </linearGradient>
  <linearGradient id="90ssummer" x1="0%" x2="0%" y1="0%" y2="100%">
   <stop offset="0%" style="stop-color: #b16286; stop-opacity:1"/>
   <stop offset="20%" style="stop-color: #8ec07c; stop-opacity:1"/>
   <stop offset="50%" style="stop-color: #fabd2f; stop-opacity:1"/>
   <stop offset="100%" style="stop-color: #458588; stop-opacity:1"/>
  </linearGradient>
  <linearGradient id="cyberneon" x1="0%" x2="0%" y1="0%" y2="100%">
    <stop offset="0" style="stop-color:#83a598; stop-opacity:1"/>
    <stop offset="1" style="stop-color:#b16286; stop-opacity:1"/>
  </linearGradient>
 </defs>
 <path style="fill:currentColor" class="ColorScheme-Text" fill-rule="evenodd" d="M 5.187 12.675 C 4.219 12.433 3.68 11.663 3.678 10.521 C 3.677 10.156 3.704 9.981 3.795 9.746 C 4.018 9.171 4.61 8.737 5.388 8.577 C 5.775 8.497 5.895 8.412 5.895 8.214 C 5.895 8.152 5.941 7.967 5.997 7.804 C 6.253 7.06 6.727 6.44 7.233 6.186 C 7.763 5.921 8.03 5.861 8.671 5.864 C 9.582 5.869 10.036 6.066 10.671 6.734 L 11.021 7.1 L 11.334 6.992 C 12.848 6.468 14.359 7.36 14.48 8.852 L 14.514 9.26 L 14.812 9.367 C 15.664 9.672 16.064 10.313 15.992 11.255 C 15.944 11.871 15.656 12.363 15.2 12.607 L 14.985 12.722 L 10.217 12.731 C 6.553 12.738 5.388 12.725 5.187 12.675 L 5.187 12.675 Z M 1.613 12.016 C 1.048 11.882 0.449 11.383 0.168 10.812 C 0.008 10.488 0 10.44 0 9.867 C 0 9.322 0.014 9.235 0.14 8.964 C 0.408 8.394 0.92 7.982 1.563 7.82 C 1.698 7.786 1.826 7.731 1.846 7.699 C 1.866 7.666 1.889 7.489 1.896 7.305 C 1.941 6.164 2.689 5.159 3.735 4.836 C 4.3 4.661 5.01 4.704 5.624 4.95 C 5.819 5.028 5.797 5.045 6.209 4.504 C 6.453 4.185 6.945 3.787 7.348 3.585 C 7.783 3.366 8.235 3.266 8.776 3.267 C 10.288 3.271 11.591 4.217 12.073 5.66 C 12.227 6.121 12.219 6.25 12.038 6.254 C 11.959 6.256 11.732 6.299 11.533 6.351 L 11.173 6.445 L 10.844 6.116 C 9.916 5.189 8.403 4.988 7.116 5.622 C 6.602 5.876 6.189 6.239 5.877 6.713 C 5.654 7.051 5.371 7.682 5.371 7.839 C 5.371 7.95 5.281 8.005 4.897 8.131 C 3.708 8.521 3.014 9.421 3.014 10.574 C 3.014 10.993 3.122 11.506 3.272 11.8 C 3.329 11.911 3.36 12.016 3.342 12.034 C 3.296 12.08 1.817 12.065 1.613 12.016 L 1.613 12.016 Z"/>
</svg>
